X:7428
T:The Trip to Windsor
R:reel
C:Dan R. MacDonald
S:Silver Apple News,1994
D:Classic Cuts, Winston Fitzgerald
B:The Trip to Windsor Collection, Dan R. MacDonald
N:Contacts ...
N:John Donald Cameron <danr@cranfordpub.com>
H:Copyrights:published by Cameron Music, Port Hawsbury (SOCAN)
Q:300
O:England
L:1/8
M:C|
K:A
E|A/A/A A2 Acea|f/f/f fa fece|agfe fgaf|ecBc AFEF|
A/A/A A2 Acea|f/f/f fa fece|agfe fgaf|ecBa cAA:|
|:c|efec efae|faec BAcB|AFEC EFAE|FAEC B,A,CB,|
A,2 CE FECE|AEcB Acec|agfe fgaf|ecBa cAA:|
